X:2
T:Irish Washerwoman, The
R:jig
H:Bar 3 also played |cAA =FAA| or |cAA EAA| or |cAA DAA|
Z:id:hn-jig-2
M:6/8
K:G
BGG DGG|BGB dcB|cAA FAA|cAc edc|
BGG DGG|BGB dcB|cBc Adc|1 BGG G2A:|2 BGG Gef||
|:gfg ~d3|gdg bag|fef ~d3|fdf agf|
egg dgg|cgg Bgg|cBc Adc|1 BGG Gef:|2 BGG G2A||

